src/assets/outline/PauseCircle.svg

<svg width="24" height="24" viewBox="0 0 24 24"  xmlns="http://www.w3.org/2000/svg">
<path d="M11.9702 22.75C6.05021 22.75 1.22021 17.93 1.22021 12C1.22021 6.07 6.05021 1.25 11.9702 1.25C17.8902 1.25 22.7202 6.07 22.7202 12C22.7202 17.93 17.9002 22.75 11.9702 22.75ZM11.9702 2.75C6.87021 2.75 2.72021 6.9 2.72021 12C2.72021 17.1 6.87021 21.25 11.9702 21.25C17.0702 21.25 21.2202 17.1 21.2202 12C21.2202 6.9 17.0702 2.75 11.9702 2.75Z" />
<path d="M10.01 15.95H8.71C7.79 15.95 7.25 15.42 7.25 14.53V9.47005C7.25 8.58005 7.8 8.05005 8.71 8.05005H10C10.92 8.05005 11.46 8.58005 11.46 9.47005V14.53C11.47 15.42 10.92 15.95 10.01 15.95ZM8.75 14.45H9.97V9.55005H8.76L8.75 14.45Z" />
<path d="M15.29 15.95H14C13.08 15.95 12.54 15.42 12.54 14.53V9.47005C12.54 8.58005 13.09 8.05005 14 8.05005H15.29C16.21 8.05005 16.75 8.58005 16.75 9.47005V14.53C16.75 15.42 16.2 15.95 15.29 15.95ZM14.03 14.45H15.25V9.55005H14.04L14.03 14.45Z" />
</svg>

<?xml version="1.0" encoding="UTF-8"?>
<svg width="24" height="24" viewBox="0 0 24 24" xmlns="http://www.w3.org/2000/svg">
 <path d="m11.97 22.75c-5.92 0-10.75-4.82-10.75-10.75s4.83-10.75 10.75-10.75c5.92 0 10.75 4.82 10.75 10.75s-4.82 10.75-10.75 10.75zm0-20c-5.1 0-9.25 4.15-9.25 9.25s4.15 9.25 9.25 9.25c5.1 0 9.25-4.15 9.25-9.25s-4.15-9.25-9.25-9.25z"/>
 <path d="m10.01 15.95h-1.3c-0.92 0-1.46-0.53-1.46-1.42v-5.06c0-0.89 0.55-1.42 1.46-1.42h1.29c0.92 0 1.46 0.53 1.46 1.42v5.06c0.01 0.89-0.54 1.42-1.45 1.42zm-1.26-1.5h1.22v-4.9h-1.21l-0.01 4.9z"/>
 <path d="m15.29 15.95h-1.29c-0.92 0-1.46-0.53-1.46-1.42v-5.06c0-0.89 0.55-1.42 1.46-1.42h1.29c0.92 0 1.46 0.53 1.46 1.42v5.06c0 0.89-0.55 1.42-1.46 1.42zm-1.26-1.5h1.22v-4.9h-1.21l-0.01 4.9z"/>
</svg>
